dist/svgs/unicons/line/focus.svg

<svg xmlns="http://www.w3.org/2000/svg" viewBox="0 0 24 24"><path d="M8 2H3a1 1 0 00-1 1v5a1 1 0 002 0V4h4a1 1 0 000-2zm0 18H4v-4a1 1 0 00-2 0v5a1 1 0 001 1h5a1 1 0 000-2zM21 2h-5a1 1 0 000 2h4v4a1 1 0 002 0V3a1 1 0 00-1-1zm0 13a1 1 0 00-1 1v4h-4a1 1 0 000 2h5a1 1 0 001-1v-5a1 1 0 00-1-1z"/></svg>

<svg xmlns="http://www.w3.org/2000/svg" viewBox="0 0 24 24"><path d="M8,2H3A1,1,0,0,0,2,3V8A1,1,0,0,0,4,8V4H8A1,1,0,0,0,8,2ZM8,20H4V16a1,1,0,0,0-2,0v5a1,1,0,0,0,1,1H8a1,1,0,0,0,0-2ZM21,2H16a1,1,0,0,0,0,2h4V8a1,1,0,0,0,2,0V3A1,1,0,0,0,21,2Zm0,13a1,1,0,0,0-1,1v4H16a1,1,0,0,0,0,2h5a1,1,0,0,0,1-1V16A1,1,0,0,0,21,15Z"/></svg>
